site/_assets/img/02.svg

<svg viewBox="0 0 500 500" xmlns="http://www.w3.org/2000/svg"><path d="m82.6 475h81v-373.5h90.9c54.9 0 79.2 26.1 79.2 72s-22.5 76.5-73.8 76.5h-96.3v76.5h82.8c102.6 0 171-49.5 171-148.5s-68.4-153-172.8-153h-162zm26.1-423h139.5c81.9 0 140.4 41.4 140.4 124.2s-53.1 124.2-139.5 124.2h-85.5v-25.2h89.1c72 0 108.9-36 108.9-100.8 0-68.4-40.5-99-109.8-99h-114.3v374.4h-28.8z" fill="#fafafa"/></svg>

<svg viewBox="0 0 500 500" xmlns="http://www.w3.org/2000/svg">
<path d="M82.6 475H163.6V101.5H254.5C309.4 101.5 333.7 127.6 333.7 173.5C333.7 219.4 311.2 250 259.9 250H163.6V326.5H246.4C349 326.5 417.4 277 417.4 178C417.4 79 349 25 244.6 25H82.6V475ZM108.7 52H248.2C330.1 52 388.6 93.4 388.6 176.2C388.6 259 335.5 300.4 249.1 300.4H163.6V275.2H252.7C324.7 275.2 361.6 239.2 361.6 174.4C361.6 106 321.1 75.4 251.8 75.4H137.5V449.8H108.7V52Z" fill="#FFFFFF"/>
</svg>
